.svelte-kit/output/client/library/social-blog-1.svg

<svg width="48" height="48" viewBox="0 0 48 48" fill="none" xmlns="http://www.w3.org/2000/svg">
<rect x="6" y="6" width="36" height="36" rx="8" fill="#0052FC"/>
<path d="M24.5 14H32.5" stroke="#FCA50A" stroke-width="2.2"/>
<path d="M14 36V21M19 36V21M21.5 22H25.5L22 35M23 18H28.5V36M35 19.5L30 23.5L36 35M14 21V14H19V21M14 21H19" stroke="white" stroke-width="2.2"/>
<path d="M19 28H14" stroke="white" stroke-width="2.2"/>
</svg>

<svg width="48" height="48" fill="none" xmlns="http://www.w3.org/2000/svg"><rect x="6" y="6" width="36" height="36" rx="8" fill="#0052FC"/><path d="M24.5 14h8" stroke="#FCA50A" stroke-width="2.2"/><path d="M14 36V21m5 15V21m2.5 1h4L22 35m1-17h5.5v18M35 19.5l-5 4L36 35M14 21v-7h5v7m-5 0h5M19 28h-5" stroke="#fff" stroke-width="2.2"/></svg>
